!!!COM:	la Rue, Pierre de
!!!CDT:	~1452///-1518/11/20
!!!OPR:	Missa Assumpta est Maria
!!!ONM:	2
!!!OTL:	Gloria
!!!AGN:	Mass; Gloria
!!!SCT:	Rue1003b
!!!SCA:	Rue1003b
!!!voices:	4
!!!voices-OPR:	4
**kern	**kern	**kern	**kern
*staff4	*staff3	*staff2	*staff1
*Ivox	*Ivox	*Ivox	*Ivox
*I"Bassus	*I"Tenor	*I"Contra	*I"Discantus
*I'B	*I'T	*I'C	*I'D
*>[A,B]	*>[A,B]	*>[A,B]	*>[A,B]
*>A	*>A	*>A	*>A
*clefF4	*clefF4	*clefGv2	*clefGv2
*k[b-]	*k[b-]	*k[b-]	*k[b-]
*M3/1	*M3/1	*M3/1	*M3/1
*met(O)	*met(O)	*met(O)	*met(O)
!!section: Et in terra pax
!!!OMD: Et in terra pax
=1-	=1-	=1-	=1-
0C	0C	0G	0c
[1FF	[1C	1A	1c
=2	=2	=2	=2
1FF]	1C]	0c	0A
0C	0E	.	.
.	.	1A	1c
=3	=3	=3	=3
1BB-	0.F	2.B-\	1.d
.	.	4c\	.
2BB-/	.	2d\	.
1D	.	2.d\	2B-\
.	.	.	2d\
.	.	4c\	.
2D\	.	4A/	[2f\
.	.	4B-\	.
=4	=4	=4	=4
0C	0G	0.c	2f\]
.	.	.	2e\
.	.	.	0e
2r	2r	.	.
2C/	2G\	.	.
=5	=5	=5	=5
2C/	2G\	2r	2r
2C/	2G\	2c\	2e\
1AA	0A	2c\	2e\
.	.	2c\	2e\
[1D	.	[1F	[1f
=6	=6	=6	=6
0D]	1A	1F]	1f]
.	0A	1F	1d
1AA	.	2E/	1c
.	.	[2A/	.
=7	=7	=7	=7
2AA/	2.F\	4A/]	2c\
.	.	4D/	.
2.BB-/	.	1D	2.d\
.	4E\	.	.
.	4F\	.	.
4FF/	4G\	.	4c\
1FF	1A	2.F/	1c
.	.	4G/	.
2FF/	2A\	2A/	2c\
=8	=8	=8	=8
2BB-/	2G\	2B-\	2d\
2D\	2F\	2A/	1f
1C	1G	1.c	.
.	.	.	2e\
1C	1G	.	2.e\
.	.	2c\	.
.	.	.	4d\
=9	=9	=9	=9
0FF;	0F;	0A;	0f;
1r	1r	1r	1r
=10	=10	=10	=10
0.r	0.r	1c	1r
.	.	2A/	1e
.	.	2A/	.
.	.	1G	2e\
.	.	.	2e\
=11	=11	=11	=11
1BB-	0.r	2G/	1d
.	.	1B-	.
2BB-/	.	.	2d\
2BB-/	.	2A/	1f
1AA	.	2F/	.
.	.	[2A/	2e\
=12	=12	=12	=12
2AA/	0.r	2A/]	2c\
1C	.	1.G	1e
2BB-/	.	.	1d
2GG/	.	1B-	.
[2BB-/	.	.	2d\
=13	=13	=13	=13
2BB-/]	0.r	2B-\	1f
1AA	.	1c	.
.	.	.	1e
2AA/	.	2c\	.
1C	.	1G	2e\
.	.	.	[2g\
=14	=14	=14	=14
2GG/	0.r	1B-	2g\]
2.BB-/	.	.	2d\
.	.	2B-\	2.f\
4AA/	.	.	.
2BB-/	.	2F/	.
.	.	.	4e\
4C/	.	2A/	2c\
4BB-/	.	.	.
4AA/	.	[2G/	[2e\
4GG/	.	.	.
=15	=15	=15	=15
1AA	0.r	4G/]	4e\]
.	.	4F/	4f\
.	.	1F	4g\
.	.	.	4a\
1GG	.	.	1b-
.	.	2E/	.
2r	.	1F	[1a
2D\	.	.	.
=16	=16	=16	=16
2D\	0.r	2r	2a\]
2D\	.	2A/	4g\
.	.	.	4f\
2C/	.	2A/	2e\
2BB-/	.	2.B-\	1d
2.GG/	.	.	.
.	.	4A/	.
.	.	4G/	[2g\
8AA/L	.	4F/	.
8BB-/J	.	.	.
=17	=17	=17	=17
2C/	0.r	2E/	4g\]
.	.	.	4e\
2.BB-/	.	2D/	4f\
.	.	.	4e\
.	.	2F/	4d\
4AA/	.	.	4c\
2C/	.	2E/	1c
1GG	.	1D	.
.	.	.	2Bni\
=18	=18	=18	=18
1r	1r	0.C	0.c
1r	1r	.	.
1FF	1F	.	.
=19	=19	=19	=19
1C	1E	0.r	0.r
2C/	0C	.	.
1AA	.	.	.
2AA/	.	.	.
=20	=20	=20	=20
2BB-/	1.D	0.r	0.r
1GG	.	.	.
2FF/	2D\	.	.
2GG/	1D	.	.
[2BB-/	.	.	.
=21	=21	=21	=21
2BB-/]	1C	0.r	0.r
2AA/	.	.	.
2BB-/	2.D\	.	.
1D	.	.	.
.	4E\	.	.
.	4F\	.	.
.	4G\	.	.
2C/	2E\	.	.
=22	=22	=22	=22
2BB-/	1D	0.r	0.r
2.GG/	.	.	.
.	1G	.	.
4AA/	.	.	.
4BB-/	.	.	.
4C/	.	.	.
2AA/	2F\	.	.
2GG/	2G\	.	.
=23	=23	=23	=23
1C	2E\	0.r	0.r
.	1A	.	.
2AA/	.	.	.
2.D\	2A\	.	.
.	2A\	.	.
4C/	.	.	.
4BB-/	[2B-\	.	.
4AA/	.	.	.
=24	=24	=24	=24
2GG/	4B-\]	0.r	0.r
.	4A\	.	.
2.C/	4G\	.	.
.	4F\	.	.
.	2E\	.	.
4BB-/	.	.	.
4AA/	2.A\	.	.
4GG/	.	.	.
1FF	.	.	.
.	4G\	.	.
.	4F\	.	.
.	4E\	.	.
=25	=25	=25	=25
2.BB-/	4D\	0.r	0.r
.	4C/	.	.
.	1G	.	.
4AA/	.	.	.
4BB-/	.	.	.
4AA/	.	.	.
4GG/	2.F\	.	.
4FF/	.	.	.
1GG	.	.	.
.	4E\	.	.
.	2E\	.	.
=26	=26	=26	=26
0.FF	0.F	1C	0.r
.	.	2C/	.
.	.	2.D/	.
.	.	4E/	.
.	.	[2F/	.
=27	=27	=27	=27
0.r	0.r	2F/]	1c
.	.	2F/	.
.	.	2C/	2c\
.	.	1G	2.d\
.	.	.	4e\
.	.	2F/	[2f\
=28	=28	=28	=28
1FF	0.r	2D/	2f\]
.	.	1F	2f\
2FF/	.	.	4c\
.	.	.	4d\
2.GG/	.	2E/	4e\
.	.	.	4f\
.	.	1D	2g\
4AA/	.	.	.
[2BB-/	.	.	2f\
=29	=29	=29	=29
2BB-/]	0.r	2.F/	2d\
2BB-/	.	.	1f
.	.	4G/	.
4FF/	.	1A	.
4GG/	.	.	.
4AA/	.	.	1e
4BB-/	.	.	.
2C/	.	2A/	.
2BB-/	.	[2B-\	[2d\
=30	=30	=30	=30
2GG/	0.r	2B-\]	2d\]
1D	.	2B-\	2d\
.	.	2F/	2f\
2E-i\	.	1B-	2g\
1C	.	.	1e
.	.	2A/	.
=31	=31	=31	=31
0BB-	[0.F	0B-	1d
.	.	.	0f
[1FF	.	[1c	.
=32	=32	=32	=32
1FF]	1F]	0.c]	2c\
.	.	.	1f
0C	0G	.	.
.	.	.	2.e\
.	.	.	4d\
.	.	.	4c\
.	.	.	4B-\
=33	=33	=33	=33
2r	0F	1r	0A
2D\	.	.	.
2D\	.	1r	.
2.D\	.	.	.
.	1F	1F	2r
4C/	.	.	.
4BB-/	.	.	2d\
4AA/	.	.	.
=34	=34	=34	=34
1GG	1B-	0G	2d\
.	.	.	1d
2r	2B-\	.	.
2GG/	2.B-\	.	2.d\
2GG/	.	1B-	.
.	4A\	.	4c\
2GG/	4G\	.	4B-\
.	4F\	.	4A/
=35	=35	=35	=35
0.C	1E	0c	1G
.	2r	.	2r
.	2E\	.	2G/
.	2E\	1c	2G/
.	2E\	.	2G/
=36	=36	=36	=36
0.FF	1F	1.c	1A
.	2F\	.	2A/
.	1A	1.F	1c
.	2A\	.	2c\
=37	=37	=37	=37
0.GG	[0.G	1.D	0B-
.	.	2E-i/	.
.	.	2D/	2r
.	.	[2BB-/	2B-\
=38	=38	=38	=38
2r	0.G]	2BB-/]	2B-\
2GG/	.	2B-\	2B-\
2GG/	.	2B-\	2G/
2GG/	.	2G/	2.B-\
4GG/	.	1B-	.
4AA/	.	.	4c\
4BB-/	.	.	4d\
4C/	.	.	4e\
=39	=39	=39	=39
2D\	1F	2A/	2f\
2BB-/	.	2B-\	1d
1C	2E\	0G	.
.	2C/	.	1c
1GG	1D	.	.
.	.	.	2Bni\
=40	=40	=40	=40
2r	0.C	1E	0.c
2G\	.	.	.
2G\	.	1r	.
2G\	.	.	.
1E	.	2r	.
.	.	2c\	.
=41	=41	=41	=41
2E\	0.r	2c\	0.r
2.F\	.	2c\	.
.	.	1A	.
4D\	.	.	.
1D	.	.	.
.	.	2A/	.
2D\	.	[2B-\	.
=42	=42	=42	=42
2.G\	0.r	4B-\]	0.r
.	.	4G/	.
.	.	1G	.
4F\	.	.	.
4E\	.	.	.
4D\	.	.	.
1C	.	2G/	.
.	.	2.A/	.
2C/	.	.	.
.	.	4F/	.
=43	=43	=43	=43
2D\	0.r	2F/	0.r
2C/	.	2A/	.
2.E\	.	2G/	.
.	.	1c	.
4F\	.	.	.
1D	.	.	.
.	.	2Bni\	.
=44	=44	=44	=44
0C	0.G	0c	1r
.	.	.	1r
1C	.	1c	1e
=45	=45	=45	=45
[0.BB-	0B-	0d	0f
.	[1F	[1B-	[1d
=46	=46	=46	=46
1BB-]	0.F]	1B-]	1d]
0FF	.	0A	0c
=47	=47	=47	=47
2.GG/	0.D	1.G	2B-\
.	.	.	2B-\
4FF/	.	.	.
4GG/	.	.	2B-\
4AA/	.	.	.
4BB-/	.	2G/	2B-\
4C/	.	.	.
1D	.	2F/	1A
.	.	2F/	.
=48	=48	=48	=48
0.GG	1r	2.G/	1B-
.	.	4A/	.
.	1D	4B-\	2G/
.	.	4c\	.
.	.	2d\	2.B-\
.	2D\	2G/	.
.	.	.	4c\
.	2D\	[2B-\	2d\
=49	=49	=49	=49
0.r	1D	2B-\]	2G/
.	.	1A	2f\
.	0D	.	4e\
.	.	.	4d\
.	.	2.G/	4c\
.	.	.	4B-\
.	.	.	1A
.	.	4F#i/	.
.	.	2F#i/	.
=50	=50	=50	=50
1GG	1r	2G/	1G
.	.	2.B-\	.
2BB-/	0G	.	2r
.	.	4c\	.
2BB-/	.	2d\	2d\
1C	.	[1c	2e\
.	.	.	2e\
=51	=51	=51	=51
1FF	0A	1c]	2.f\
.	.	.	4e\
2.F\	.	2A/	2.c\
.	.	2.c\	.
4E\	.	.	4d\
2.C/	[1G	.	4e\
.	.	4B-\	4f\
.	.	[2G/	[2g\
4D\	.	.	.
=52	=52	=52	=52
4E\	1G]	4G/]	4g\]
4F\	.	4A/	4f\
2G\	.	4B-\	1d
.	.	4c\	.
2D\	0F	1d	.
1BB-	.	.	2f\
.	.	2B-\	2d\
2BB-/	.	2d\	2f\
=53	=53	=53	=53
2C/	2r	2c\	2e\
2GG/	1B-	2B-\	1d
2BB-/	.	2G/	.
2FF/	2A\	2A/	2c\
2GG/	2G\	2B-\	2B-\
4AA/	2F\	[2c\	2A/
4BB-/	.	.	.
=54	=54	=54	=54
0C	0E	2c\]	0.Gl
.	.	2c\	.
.	.	0cl	.
1Cl	1El	.	.
!!LO:LB:i:g=z
=55||	=55||	=55||	=55||
*>B	*>B	*>B	*>B
*clefF4	*clefF4	*clefGv2	*clefGv2
*k[b-]	*k[b-]	*k[b-]	*k[b-]
*M2/1	*M2/1	*M2/1	*M2/1
*met(C|)	*met(C|)	*met(C|)	*met(C|)
!!section: Qui tollis
!!!OMD: Qui tollis
0C	0C	0c	0e
=56	=56	=56	=56
1AA	1C	1c	1e
1AA	1C	1c	2e\
.	.	.	[2c\
=57	=57	=57	=57
1C	0E	1G	2c\]
.	.	.	4B-\
.	.	.	4A/
2C/	.	1c	[1A
[2AA/	.	.	.
=58	=58	=58	=58
2AA/]	[0F	1.c	1A]
4GG/	.	.	.
4FF/	.	.	.
[1FF	.	.	[1f
.	.	[2A/	.
=59	=59	=59	=59
1FF]	0F]	2A/]	1f]
.	.	4G/	.
.	.	4F/	.
1FF	.	1A	1f
=60	=60	=60	=60
1C	[0G	1G	1.e
1C	.	1c	.
.	.	.	4d\
.	.	.	4c\
=61	=61	=61	=61
2GG/	0G]	2B-\	2d\
2.C/	.	2c\	2c\
.	.	1C	1g
4D\	.	.	.
2E\	.	.	.
=62	=62	=62	=62
1D	[0A	[0F	1f
1F	.	.	[1d
=63	=63	=63	=63
1D	0A_	0F]	1d]
1D	.	.	1f
=64	=64	=64	=64
1F	0A]	1r	1d
[1D	.	2r	[1f
.	.	2F/	.
=65	=65	=65	=65
1D]	0F	2F/	1f]
.	.	2F/	.
1F	.	2.A/	1c
.	.	4B-\	.
=66	=66	=66	=66
[0C	[0G	1c	2r
.	.	.	2c\
.	.	1G	2c\
.	.	.	2c\
=67	=67	=67	=67
0C]	0G]	0c	2.e\
.	.	.	4f\
.	.	.	1g
=68	=68	=68	=68
2r	0F	1A	1c
2FF/	.	.	.
2FF/	.	2A/	1f
2FF/	.	[2A/	.
=69	=69	=69	=69
2.AA/	0r	2A/]	1e
.	.	4G/	.
4BB-/	.	4F/	.
1C	.	2.E/	1e
.	.	4D/	.
=70	=70	=70	=70
1FF	0r	1F	2.a\
.	.	.	4g\
1BB-	.	2D/	2f\
.	.	[2G/	[2e\
=71	=71	=71	=71
2AA/	0r	2G/]	2e\]
2FF/	.	2F/	1d
2GG/	.	1E	.
2AA/	.	.	2c#i\
=72	=72	=72	=72
1DD	0F	0D	1d
1D	.	.	1r
=73	=73	=73	=73
2D\	1F	1A	1f
1D	.	.	.
.	1F	2A/	2f\
2D\	.	[2A/	[2f\
=74	=74	=74	=74
1D	1F	2A/]	2f\]
.	.	2A/	2f\
1BB-	1F	2d\	2f\
.	.	2d\	2f\
=75	=75	=75	=75
0FF	0F	1c	1f
.	.	[1A	[1c
=76	=76	=76	=76
1.C	0E	1A]	1c]
.	.	[1G	[1c
2C/	.	.	.
=77	=77	=77	=77
2C/	0C	2G/]	2c\]
2C/	.	2G/	2c\
2AA/	.	2F/	2c\
2AA/	.	2F/	2c\
=78	=78	=78	=78
2GG/	[0D	2G/	1B-
2BB-/	.	2.d\	.
2FF/	.	.	2A/
.	.	4A/	.
2GG/	.	[2d\	[2B-\
=79	=79	=79	=79
0DD	0D]	2d\]	4B-\]
.	.	.	4A/
.	.	4c\	1G
.	.	4B-\	.
.	.	1A	.
.	.	.	2F#i/
=80	=80	=80	=80
[0GG	[0D	[0G	2G/
.	.	.	2B-\
.	.	.	2c\
.	.	.	[2d\
=81	=81	=81	=81
0GG]	0D]	0G]	2d\]
.	.	.	1c
.	.	.	2Bni\
=82	=82	=82	=82
1C	2C/	0r	0c
.	2E\	.	.
2FF/	2F\	.	.
2C/	[2G\	.	.
=83	=83	=83	=83
2AA/	2G\]	0r	1.c
2FF/	1F	.	.
1C	.	.	.
.	2E\	.	2A/
=84	=84	=84	=84
0FF	0F	0r	0A
=85	=85	=85	=85
1BB-	1.D	0r	0r
2BB-/	.	.	.
[2AA/	2C/	.	.
=86	=86	=86	=86
2AA/]	1BB-	1r	0r
1GG	.	.	.
.	1AA	1c	.
2FF/	.	.	.
=87	=87	=87	=87
2GG/	1GG	1B-	0r
1BB-	.	.	.
.	1r	2G/	.
[2C/	.	[2A/	.
=88	=88	=88	=88
4C/]	1r	2A/]	0r
4BB-/	.	.	.
4AA/	.	1G	.
4GG/	.	.	.
1AA	2r	.	.
.	2C/	2F#i/	.
=89	=89	=89	=89
1GG	2D\	1G	0r
.	2E\	.	.
1r	1F	2r	.
.	.	2F/	.
=90	=90	=90	=90
1C	1E	2G/	0r
.	.	2A/	.
2BB-/	2D\	[1B-	.
2GG/	2G\	.	.
=91	=91	=91	=91
2BB-/	2D\	1B-]	0r
2C/	1G	.	.
1D	.	1A	.
.	2F\	.	.
=92	=92	=92	=92
1GG	2E\	2.G/	0r
.	1G	.	.
.	.	4A/	.
1r	.	2B-\	.
.	2E\	[2c\	.
=93	=93	=93	=93
1GG	1D	2c\]	0r
.	.	2B-\	.
2AA/	2.C/	2.c\	.
[2C/	.	.	.
.	4D\	4B-\	.
=94	=94	=94	=94
2C/]	2E\	4A/	0r
.	.	4G/	.
2.D\	1F	1B-	.
4C/	.	.	.
2BB-/	[2D\	[2G/	.
=95	=95	=95	=95
1AA	2D\]	2G/]	0r
.	2C/	2F#i/	.
1GG	1D	1G	.
=96	=96	=96	=96
0r	0r	1B-	1d
.	.	2B-\	2d\
.	.	2A/	2c\
=97	=97	=97	=97
0r	0r	1G	2.B-\
.	.	.	4c\
.	.	1F#i	1A
=98	=98	=98	=98
0r	0r	1G	1G
.	.	1B-	2r
.	.	.	2d\
=99	=99	=99	=99
1r	0r	2B-\	2d\
.	.	2B-\	2d\
1FF	.	1A	1c
=100	=100	=100	=100
1GG	0r	1G	1B-
[1BB-	.	[1d	[1f
=101	=101	=101	=101
2BB-/]	0r	2d\]	2f\]
2BB-/	.	2d\	2f\
2BB-/	.	2B-\	1d
2BB-/	.	[2G/	.
=102	=102	=102	=102
1AA	0r	2G/]	1c
.	.	2F/	.
1GG	.	1G	1B-
=103	=103	=103	=103
0D	1r	1F	1A
.	2r	1F	[1d
.	2D\	.	.
=104	=104	=104	=104
1.BB-	2D\	0r	2d\]
.	2D\	.	2d\
.	2.G\	.	2d\
2GG/	.	.	2d\
.	4F\	.	.
=105	=105	=105	=105
0GG	4E\	0r	2.g\
.	4D\	.	.
.	2.G\	.	.
.	.	.	4f\
.	.	.	4e\
.	4F\	.	4d\
.	4E\	.	[2g\
.	4D\	.	.
=106	=106	=106	=106
0r	2.C/	0r	4g\]
.	.	.	4f\
.	.	.	4e\
.	4D\	.	4d\
.	2E\	.	2c\
.	2D\	.	2f\
=107	=107	=107	=107
0r	1F	1r	2e\
.	.	.	1d
.	1E	1G	.
.	.	.	2c#i\
=108	=108	=108	=108
1GG	[0D	1B-	0d
1GG	.	2B-\	.
.	.	[2G/	.
=109	=109	=109	=109
1.BB-	0D_	2G/]	1r
.	.	4F/	.
.	.	4E/	.
.	.	1D	1d
2AA/	.	.	.
=110	=110	=110	=110
2GG/	0D]	1G	1d
4FF/	.	.	.
4EE/	.	.	.
2DD/	.	[1F	[1f
[2D\	.	.	.
=111	=111	=111	=111
2D\]	0F	2F/]	2f\]
2C/	.	4G/	2e\
.	.	4A/	.
2BB-/	.	1B-	2d\
4AA/	.	.	4c\
4GG/	.	.	4B-\
=112	=112	=112	=112
1FF	1F	1c	2A/
.	.	.	1c
1FF	1F	1A	.
.	.	.	2c\
=113	=113	=113	=113
1BB-	1F	1B-	1B-
[1FF	1F	[1c	[1A
=114	=114	=114	=114
1FF]	[0F	1c]	1A]
2.FF/	.	1c	2.A/
4GG/	.	.	4B-\
=115	=115	=115	=115
2AA/	0F]	2c\	2c\
2.BB-/	.	2.B-\	2.d\
4AA/	.	4c\	4c\
2BB-/	.	2d\	4B-\
.	.	.	4A/
=116	=116	=116	=116
1C	0E	1c	1G
1C	.	1c	1G
=117	=117	=117	=117
1C	1E	1c	1G
1C	1E	1c	1G
=118	=118	=118	=118
1FF	0F	1c	2.A/
.	.	.	4B-\
2FF/	.	1r	2c\
[2BB-/	.	.	[2d\
=119	=119	=119	=119
2BB-/]	1F	0r	2d\]
2AA/	.	.	2c\
2BB-/	1F	.	2d\
2D\	.	.	[2f\
=120	=120	=120	=120
0C	0G	0c	2f\]
.	.	.	4e\
.	.	.	4d\
.	.	.	1e
=121	=121	=121	=121
1C	2.E\	1c	2e\
.	.	.	4c\
.	4F\	.	4d\
2C/	4G\	1G	4e\
.	4A\	.	4f\
[2GG/	[2B-\	.	[2g\
=122	=122	=122	=122
2GG/]	2B-\]	2B-\	2g\]
2AA/	2A\	2c\	1f
2BB-/	1G	2d\	.
2C/	.	2c\	2e\
=123	=123	=123	=123
0FF	0F	0A	0f
=124	=124	=124	=124
*M3/1	*M3/1	*M3/1	*M3/1
*met(3)	*met(3)	*met(3)	*met(3)
0.r	0.r	0A	0c
.	.	1A	1c
=125	=125	=125	=125
0.r	0.r	0B-	0d
.	.	1A	1c
=126	=126	=126	=126
0.r	0.r	1B-	1d
.	.	0G	0e
=127	=127	=127	=127
0.r	0.r	0F	0f
.	.	1r	1r
=128	=128	=128	=128
1C	1G	1c	1e
1C	1G	1c	1e
1C	1G	1c	1e
=129	=129	=129	=129
0BB-	0.B-	0d	0f
1r	.	1d	1f
=130	=130	=130	=130
1.BB-	0F	0B-	1.d
2AA/	.	.	2c\
2BB-/	[1F	2A/	1B-
2C/	.	2G/	.
=131	=131	=131	=131
1D	1F]	1F	1A
0D	0F	1A	0d
.	.	1D	.
=132	=132	=132	=132
0GG	0G	0D	0B-
1r	1r	1r	1r
=133	=133	=133	=133
0GG	0G	0B-	1.d
.	.	.	2e\
1D	1F	1A	1f
=134	=134	=134	=134
1C	1E	1.c	0g
0GG	0D	.	.
.	.	2Bni\	.
.	.	1Bni	1g
=135	=135	=135	=135
1.C	1.C	0c	1e
.	.	.	0c
2BB-/	2D\	.	.
2AA/	1E	1r	.
2GG/	.	.	.
=136	=136	=136	=136
1.FF	1AA	1.c	1.f
.	1.F	.	.
2GG/	.	2B-\	2e\
1AA	.	2A/	2d\
.	2E\	2G/	2c\
=137	=137	=137	=137
1.BB-	2D\	1.F	1.B-
.	2C/	.	.
.	1BB-	.	.
2AA/	.	2G/	2c\
2GG/	1F	1A	1d
2FF/	.	.	.
=138	=138	=138	=138
1EE-i	1G	1B-	1e-
1FF	1.F	1A	1.d
1GG	.	1G	.
.	2E\	.	2c\
=139	=139	=139	=139
1AA-i	1C	1F	0c
0GG	0D	0G	.
.	.	.	1B-
=140	=140	=140	=140
0AA-	0C	0E-	1.e-i
.	.	.	2d\
1AA-i	1C	1F	1c
=141	=141	=141	=141
0.GG;	0.D;	0.G;	0.Bni;
=142	=142	=142	=142
0.Cl	0.Cl	0.Gl	0.cl
==	==	==	==
*-	*-	*-	*-
!!!RDF**kern: l=long note in original notation
!!!RDF**kern: i=editorial accidental
!!!RDF**kern: V=start of tuplet marker
!!!RDF**kern: Z=end of tuplet marker
!!!ENC:	Chris Gage 11-19-2012
!!!END:	2012/11/19/
!!!EED:	Jesse Rodin
!!!EEV:	2012/12/15/
!!!ONB:	Translated from MusicXML and edited on 2012/12/15/ by Craig Sapp
!!muse2ps: T^@{OPR}^u^@{ONM}{. }@{OTL}^C^@{COM}^i2I150v85,85,85,150Q16
